img/download.svg

<svg fill="none" height="800" viewBox="0 0 24 24" width="800" xmlns="http://www.w3.org/2000/svg">
    <path clip-rule="evenodd"
          d="m2 12c0-4.71405 0-7.07107 1.46447-8.53553 1.46446-1.46447 3.82148-1.46447 8.53553-1.46447 4.714 0 7.0711 0 8.5355 1.46447 1.4645 1.46446 1.4645 3.82148 1.4645 8.53553 0 4.714 0 7.0711-1.4645 8.5355-1.4644 1.4645-3.8215 1.4645-8.5355 1.4645-4.71405 0-7.07107 0-8.53553-1.4645-1.46447-1.4644-1.46447-3.8215-1.46447-8.5355zm10-5.75c.4142 0 .75.33579.75.75v5.1893l1.7197-1.7196c.2929-.2929.7677-.2929 1.0606 0s.2929.7677 0 1.0606l-3 3c-.1406.1407-.3314.2197-.5303.2197s-.3897-.079-.5303-.2197l-3.00003-3c-.29289-.2929-.29289-.7677 0-1.0606s.76777-.2929 1.06066 0l1.71967 1.7196v-5.1893c0-.41421.3358-.75.75-.75zm-4 10c-.41421 0-.75.3358-.75.75s.33579.75.75.75h8c.4142 0 .75-.3358.75-.75s-.3358-.75-.75-.75z"
          fill="#ffffff" fill-rule="evenodd"/>
</svg>

<?xml version="1.0" encoding="utf-8"?><!-- Uploaded to: SVG Repo, www.svgrepo.com, Generator: SVG Repo Mixer Tools -->
<svg width="800px" height="800px" viewBox="0 0 24 24" fill="none" xmlns="http://www.w3.org/2000/svg">
    <path fill-rule="evenodd" clip-rule="evenodd"
          d="M2 12C2 7.28595 2 4.92893 3.46447 3.46447C4.92893 2 7.28595 2 12 2C16.714 2 19.0711 2 20.5355 3.46447C22 4.92893 22 7.28595 22 12C22 16.714 22 19.0711 20.5355 20.5355C19.0711 22 16.714 22 12 22C7.28595 22 4.92893 22 3.46447 20.5355C2 19.0711 2 16.714 2 12ZM12 6.25C12.4142 6.25 12.75 6.58579 12.75 7V12.1893L14.4697 10.4697C14.7626 10.1768 15.2374 10.1768 15.5303 10.4697C15.8232 10.7626 15.8232 11.2374 15.5303 11.5303L12.5303 14.5303C12.3897 14.671 12.1989 14.75 12 14.75C11.8011 14.75 11.6103 14.671 11.4697 14.5303L8.46967 11.5303C8.17678 11.2374 8.17678 10.7626 8.46967 10.4697C8.76256 10.1768 9.23744 10.1768 9.53033 10.4697L11.25 12.1893V7C11.25 6.58579 11.5858 6.25 12 6.25ZM8 16.25C7.58579 16.25 7.25 16.5858 7.25 17C7.25 17.4142 7.58579 17.75 8 17.75H16C16.4142 17.75 16.75 17.4142 16.75 17C16.75 16.5858 16.4142 16.25 16 16.25H8Z"
          fill="#FFFFFF"/>
</svg>
